(IDeATe@Hunt - CNC Lab)
(HSMWorks post-processor for CNT Motion System 950))
(File name: 1001)
(File units: inches)
(--------------------)
(You are about to begin milling. Please check the following:)
(1. Is your stock secured to the table?)
(2. Have you simulated your file?)
(3. Is the dust collector on?)
(PRESS ENTER TO CONTINUE)
G4
(--------------------)
(Your operations will require the following tools:)
(Tool #:7  Diameter=0.5 - ZMIN=0.5 - Type: flat end mill)
(Please make sure the tools listed above are)
(1. The tools you selected in HSM Works)
(2. Loaded in the correct locations)
(PRESS ENTER TO CONTINUE)
G4
(--------------------)
(PROGRAM BEGIN)
M61 (VACUUM TABLE ON)
G90
G20 (set inch units)
(Face1)
 (set inch units for tool change)
T7 (TOOL PICK)
(MEASURE TOOL BEGIN)
M18.1 c12 (CHECKS IF TOOL IS LOADED)
M99.1 (JOB ENDS IF THERE IS NO TOOL!)
M5 (SPINDLE OFF)
G49Z
G53 Z0
G53 X{tmx} Y{tmy}
L91 G0 Z{tmd}
L91 G1 Z-16 M28 F20 G31 (MEASURING)
M37 Z{tm1} T{tp1}
G53 Z0
L91 G1 Z0 F50
G0
(MEASURE TOOL END)
 (set inch units)
M3 (SPINDLE ON)
S16000 (SPINDLE RPM)
(AUTOMATIC TOOL CHANGER MODE ACTIVE)
G0 Z6.2
G0 X10.5743 Y0.2951
G0 Z1.2
G1 Z0.55 F160
G1 X10.574 Z0.5444
G1 X10.573 Z0.5389
G1 X10.5715 Z0.5335
G1 X10.5693 Z0.5283
G1 X10.5666 Z0.5234
G1 X10.5634 Z0.5188
G1 X10.5597 Z0.5146
G1 X10.5555 Z0.5109
G1 X10.5509 Z0.5077
G1 X10.546 Z0.505
G1 X10.5408 Z0.5028
G1 X10.5354 Z0.5013
G1 X10.5299 Z0.5003
G1 X10.5243 Z0.5
G1 X10.25 F350
G1 X4.75
G2 Y0.5249 I0. J0.1149
G1 X10.25
G3 Y0.7546 I0. J0.1149
G1 X4.75
G2 Y0.9844 I0. J0.1149
G1 X10.25
G3 Y1.2141 I0. J0.1149
G1 X4.75
G2 Y1.4439 I0. J0.1149
G1 X10.25
G3 Y1.6736 I0. J0.1149
G1 X4.75
G2 Y1.9033 I0. J0.1149
G1 X10.25
G3 Y2.1331 I0. J0.1149
G1 X4.75
G2 Y2.3628 I0. J0.1149
G1 X10.25
G3 Y2.5926 I0. J0.1149
G1 X4.75
G2 Y2.8223 I0. J0.1149
G1 X10.25
G3 Y3.0521 I0. J0.1149
G1 X4.75
G2 Y3.2818 I0. J0.1149
G1 X10.25
G3 Y3.5116 I0. J0.1149
G1 X4.75
G2 Y3.7413 I0. J0.1149
G1 X10.25
G3 Y3.9711 I0. J0.1149
G1 X4.75
G2 Y4.2008 I0. J0.1149
G1 X10.25
G3 Y4.4306 I0. J0.1149
G1 X4.75
G2 Y4.6603 I0. J0.1149
G1 X10.25
G3 Y4.8901 I0. J0.1149
G1 X4.75
G2 Y5.1198 I0. J0.1149
G1 X10.25
G3 Y5.3496 I0. J0.1149
G1 X4.75
G2 Y5.5793 I0. J0.1149
G1 X10.25
G3 Y5.8091 I0. J0.1149
G1 X4.75
G2 Y6.0388 I0. J0.1149
G1 X10.25
G3 Y6.2685 I0. J0.1149
G1 X4.75
G2 Y6.4983 I0. J0.1149
G1 X10.25
G3 Y6.728 I0. J0.1149
G1 X4.75
G2 Y6.9578 I0. J0.1149
G1 X10.25
G3 Y7.1875 I0. J0.1149
G1 X4.75
G2 Y7.4173 I0. J0.1149
G1 X10.25
G3 Y7.647 I0. J0.1149
G1 X4.75
G2 Y7.8768 I0. J0.1149
G1 X10.25
G3 Y8.1065 I0. J0.1149
G1 X4.75
G2 Y8.3363 I0. J0.1149
G1 X10.25
G3 Y8.566 I0. J0.1149
G1 X4.75
G2 Y8.7958 I0. J0.1149
G1 X10.25
G3 Y9.0255 I0. J0.1149
G1 X4.75
G2 Y9.2553 I0. J0.1149
G1 X10.25
G3 Y9.485 I0. J0.1149
G1 X4.75
G2 Y9.7148 I0. J0.1149
G1 X10.25
G3 Y9.9445 I0. J0.1149
G1 X4.75
G2 Y10.1743 I0. J0.1149
G1 X10.25
G3 Y10.404 I0. J0.1149
G1 X4.75
G2 Y10.6337 I0. J0.1149
G1 X10.25
G3 Y10.8635 I0. J0.1149
G1 X4.75
G2 Y11.0932 I0. J0.1149
G1 X10.25
G3 Y11.323 I0. J0.1149
G1 X4.75
G2 Y11.5527 I0. J0.1149
G1 X10.25
G3 Y11.7825 I0. J0.1149
G1 X4.75
G2 Y12.0122 I0. J0.1149
G1 X10.25
G3 Y12.242 I0. J0.1149
G1 X4.75
G2 Y12.4717 I0. J0.1149
G1 X10.25
G3 Y12.7015 I0. J0.1149
G1 X4.75
G2 Y12.9312 I0. J0.1149
G1 X10.25
G3 Y13.161 I0. J0.1149
G1 X4.75
G2 Y13.3907 I0. J0.1149
G1 X10.25
G3 Y13.6205 I0. J0.1149
G1 X4.75
G2 Y13.8502 I0. J0.1149
G1 X10.25
G3 Y14.08 I0. J0.1149
G1 X4.75
G2 Y14.3097 I0. J0.1149
G1 X10.25
G3 Y14.5395 I0. J0.1149
G1 X4.75
G2 Y14.7692 I0. J0.1149
G1 X10.25
G3 Y14.9989 I0. J0.1149
G1 X4.75
G2 Y15.2287 I0. J0.1149
G1 X10.25
G3 Y15.4584 I0. J0.1149
G1 X4.75
G2 Y15.6882 I0. J0.1149
G1 X10.25
G3 Y15.9179 I0. J0.1149
G1 X4.75
G2 Y16.1477 I0. J0.1149
G1 X10.25
G3 Y16.3774 I0. J0.1149
G1 X4.75
G2 Y16.6072 I0. J0.1149
G1 X10.25
G3 Y16.8369 I0. J0.1149
G1 X4.75
G2 Y17.0667 I0. J0.1149
G1 X10.25
G3 Y17.2964 I0. J0.1149
G1 X4.75
G2 Y17.5262 I0. J0.1149
G1 X10.25
G3 Y17.7559 I0. J0.1149
G1 X4.75
G2 Y17.9857 I0. J0.1149
G1 X10.25
G3 Y18.2154 I0. J0.1149
G1 X4.75
G2 Y18.4452 I0. J0.1149
G1 X10.25
G3 Y18.6749 I0. J0.1149
G1 X4.75
G2 Y18.9047 I0. J0.1149
G1 X10.25
G3 Y19.1344 I0. J0.1149
G1 X4.75
G2 Y19.3641 I0. J0.1149
G1 X10.25
G3 Y19.5939 I0. J0.1149
G1 X4.75
G2 Y19.8236 I0. J0.1149
G1 X10.25
G3 Y20.0534 I0. J0.1149
G1 X4.75
G2 Y20.2831 I0. J0.1149
G1 X10.25
G3 Y20.5129 I0. J0.1149
G1 X4.75
G2 Y20.7426 I0. J0.1149
G1 X10.25
G3 Y20.9724 I0. J0.1149
G1 X4.75
G2 Y21.2021 I0. J0.1149
G1 X10.25
G3 Y21.4319 I0. J0.1149
G1 X4.75
G2 Y21.6616 I0. J0.1149
G1 X10.25
G3 Y21.8914 I0. J0.1149
G1 X4.75
G2 Y22.1211 I0. J0.1149
G1 X10.25
G3 Y22.3509 I0. J0.1149
G1 X4.75
G2 Y22.5806 I0. J0.1149
G1 X10.25
G3 Y22.8104 I0. J0.1149
G1 X4.75
G2 Y23.0401 I0. J0.1149
G1 X10.25
G3 Y23.2699 I0. J0.1149
G1 X4.75
G2 Y23.4996 I0. J0.1149
G1 X10.25
G3 Y23.7293 I0. J0.1149
G1 X4.75
G2 Y23.9591 I0. J0.1149
G1 X10.25
G3 Y24.1888 I0. J0.1149
G1 X4.75
G2 Y24.4186 I0. J0.1149
G1 X10.25
G3 Y24.6483 I0. J0.1149
G1 X4.75
G2 Y24.8781 I0. J0.1149
G1 X10.25
G3 Y25.1078 I0. J0.1149
G1 X4.75
G2 Y25.3376 I0. J0.1149
G1 X10.25
G3 Y25.5673 I0. J0.1149
G1 X4.75
G2 Y25.7971 I0. J0.1149
G1 X10.25
G3 Y26.0268 I0. J0.1149
G1 X4.75
G2 Y26.2566 I0. J0.1149
G1 X10.25
G3 Y26.4863 I0. J0.1149
G1 X4.75
G2 Y26.7161 I0. J0.1149
G1 X10.25
G3 Y26.9458 I0. J0.1149
G1 X4.75
G2 Y27.1756 I0. J0.1149
G1 X10.25
G3 Y27.4053 I0. J0.1149
G1 X4.75
G2 Y27.6351 I0. J0.1149
G1 X10.25
G3 Y27.8648 I0. J0.1149
G1 X4.75
G2 Y28.0945 I0. J0.1149
G1 X10.25
G3 Y28.3243 I0. J0.1149
G1 X4.75
G2 Y28.554 I0. J0.1149
G1 X10.25
G3 Y28.7838 I0. J0.1149
G1 X4.75
G2 Y29.0135 I0. J0.1149
G1 X10.25
G3 Y29.2433 I0. J0.1149
G1 X4.75
G2 Y29.473 I0. J0.1149
G1 X10.25
G3 Y29.7028 I0. J0.1149
G1 X4.75
G2 Y29.9325 I0. J0.1149
G1 X10.25
G1 X10.6606
G3 Y30.1623 I0. J0.1149
G1 X4.3394
G1 X3.9035
G2 Y30.392 I0. J0.1149
G1 X11.0965
G1 X11.4718
G3 Y30.6218 I0. J0.1149
G1 X3.5282
G1 X3.1979
G2 Y30.8515 I0. J0.1149
G1 X11.8021
G1 X12.0975
G3 Y31.0813 I0. J0.1149
G1 X2.9025
G1 X2.636
G2 Y31.311 I0. J0.1149
G1 X12.364
G1 X12.6065
G3 Y31.5408 I0. J0.1149
G1 X2.3935
G1 X2.1719
G2 Y31.7705 I0. J0.1149
G1 X12.8281
G1 X13.0312
G3 Y32.0003 I0. J0.1149
G1 X1.9688
G1 X1.7819
G2 Y32.23 I0. J0.1149
G1 X13.2181
G1 X13.39
G3 Y32.4597 I0. J0.1149
G1 X1.61
G1 X1.4519
G2 Y32.6895 I0. J0.1149
G1 X13.5481
G1 X13.6941
G3 Y32.9192 I0. J0.1149
G1 X1.3059
G1 X1.1721
G2 Y33.149 I0. J0.1149
G1 X13.8279
G1 X13.9512
G3 Y33.3787 I0. J0.1149
G1 X1.0488
G1 X0.9362
G2 Y33.6085 I0. J0.1149
G1 X14.0638
G1 X14.1667
G3 Y33.8382 I0. J0.1149
G1 X0.8333
G1 X0.7396
G2 Y34.068 I0. J0.1149
G1 X14.2604
G1 X14.3448
G3 Y34.2977 I0. J0.1149
G1 X0.6552
G1 X0.5793
G2 Y34.5275 I0. J0.1149
G1 X14.4207
G1 X14.4883
G3 Y34.7572 I0. J0.1149
G1 X0.5117
G1 X0.4522
G2 Y34.987 I0. J0.1149
G1 X14.5478
G1 X14.5992
G3 Y35.2167 I0. J0.1149
G1 X0.4008
G1 X0.3571
G2 Y35.4465 I0. J0.1149
G1 X14.6429
G1 X14.679
G3 Y35.6762 I0. J0.1149
G1 X0.321
G1 X0.2924
G2 Y35.906 I0. J0.1149
G1 X14.7076
G1 X14.7289
G3 Y36.1357 I0. J0.1149
G1 X0.2711
G1 X0.2571
G2 Y36.3655 I0. J0.1149
G1 X14.7429
G1 X14.7493
G3 Y36.5952 I0. J0.1149
G1 X0.2507
G1 X0.25
G2 Y36.8249 I0. J0.1149
G1 X14.75
G3 Y37.0547 I0. J0.1149
G1 X0.25
G2 Y37.2844 I0. J0.1149
G1 X0.2507
G1 X14.7493
G3 Y37.5142 I0. J0.1149
G1 X14.7426
G1 X0.2574
G2 Y37.7439 I0. J0.1149
G1 X0.2716
G1 X14.7284
G3 Y37.9737 I0. J0.1149
G1 X14.707
G1 X0.293
G2 Y38.2034 I0. J0.1149
G1 X0.3218
G1 X14.6782
G3 Y38.4332 I0. J0.1149
G1 X14.6419
G1 X0.3581
G2 Y38.6629 I0. J0.1149
G1 X0.402
G1 X14.598
G3 Y38.8927 I0. J0.1149
G1 X14.5464
G1 X0.4536
G2 Y39.1224 I0. J0.1149
G1 X0.5133
G1 X14.4867
G3 Y39.3522 I0. J0.1149
G1 X14.4189
G1 X0.5811
G2 Y39.5819 I0. J0.1149
G1 X0.6572
G1 X14.3428
G3 Y39.8117 I0. J0.1149
G1 X14.2582
G1 X0.7418
G2 Y40.0414 I0. J0.1149
G1 X0.8358
G1 X14.1642
G3 Y40.2712 I0. J0.1149
G1 X14.061
G1 X0.939
G2 Y40.5009 I0. J0.1149
G1 X1.0518
G1 X13.9482
G1 X13.9566 Y40.5012
G1 X13.9649 Y40.5021
G1 X13.9732 Y40.5037
G1 X13.9813 Y40.5058
G1 X13.9892 Y40.5085
G1 X13.997 Y40.5118
G1 X14.0044 Y40.5156
G1 X14.0116 Y40.52
G1 X14.0184 Y40.5249
G1 X14.0249 Y40.5302
G1 X14.0309 Y40.536
G1 X14.0365 Y40.5423
G1 X14.0416 Y40.5489
G1 X14.0463 Y40.5559
G1 X14.0504 Y40.5633
G1 X14.0539 Y40.5709
G1 X14.0569 Y40.5787
G1 X14.0594 Y40.5867
G1 X14.0612 Y40.5949
G1 X14.0624 Y40.6032
G1 X14.063 Y40.6116
G1 Y40.62
G1 X14.0624 Y40.6283
G1 X14.0612 Y40.6366
G1 X14.0594 Y40.6448
G1 X14.0569 Y40.6529
G1 X14.0539 Y40.6607
G1 X14.0504 Y40.6683
G1 X14.0463 Y40.6756
G1 X14.0416 Y40.6826
G1 X14.0365 Y40.6893
G1 X14.0309 Y40.6955
G1 X14.0249 Y40.7013
G1 X14.0184 Y40.7067
G1 X14.0116 Y40.7116
G1 X14.0044 Y40.716
G1 X13.997 Y40.7198
G1 X13.9893 Y40.7231
G1 X13.9813 Y40.7258
G1 X13.9732 Y40.7279
G1 X13.9649 Y40.7294
G1 X13.9566 Y40.7303
G1 X13.9482 Y40.7307
G1 X13.8247
G1 X1.1753
G1 X1.1669 Y40.731
G1 X1.1586 Y40.7319
G1 X1.1504 Y40.7334
G1 X1.1422 Y40.7355
G1 X1.1343 Y40.7382
G1 X1.1266 Y40.7415
G1 X1.1191 Y40.7454
G1 X1.1119 Y40.7497
G1 X1.1051 Y40.7546
G1 X1.0987 Y40.76
G1 X1.0926 Y40.7658
G1 X1.087 Y40.772
G1 X1.0819 Y40.7787
G1 X1.0773 Y40.7857
G1 X1.0732 Y40.793
G1 X1.0696 Y40.8006
G1 X1.0666 Y40.8084
G1 X1.0642 Y40.8165
G1 X1.0624 Y40.8247
G1 X1.0611 Y40.833
G1 X1.0605 Y40.8413
G1 Y40.8497
G1 X1.0611 Y40.8581
G1 X1.0624 Y40.8664
G1 X1.0642 Y40.8746
G1 X1.0666 Y40.8826
G1 X1.0696 Y40.8905
G1 X1.0732 Y40.898
G1 X1.0773 Y40.9054
G1 X1.0819 Y40.9124
G1 X1.087 Y40.919
G1 X1.0926 Y40.9253
G1 X1.0987 Y40.9311
G1 X1.1051 Y40.9364
G1 X1.1119 Y40.9413
G1 X1.1191 Y40.9457
G1 X1.1266 Y40.9495
G1 X1.1343 Y40.9528
G1 X1.1422 Y40.9555
G1 X1.1504 Y40.9577
G1 X1.1586 Y40.9592
G1 X1.1669 Y40.9601
G1 X1.1753 Y40.9604
G1 X1.3095
G1 X13.6905
G1 X13.6989 Y40.9607
G1 X13.7072 Y40.9616
G1 X13.7155 Y40.9631
G1 X13.7236 Y40.9653
G1 X13.7316 Y40.968
G1 X13.7393 Y40.9713
G1 X13.7467 Y40.9751
G1 X13.7539 Y40.9795
G1 X13.7607 Y40.9844
G1 X13.7672 Y40.9897
G1 X13.7732 Y40.9955
G1 X13.7788 Y41.0018
G1 X13.7839 Y41.0084
G1 X13.7886 Y41.0154
G1 X13.7927 Y41.0227
G1 X13.7962 Y41.0303
G1 X13.7992 Y41.0382
G1 X13.8017 Y41.0462
G1 X13.8035 Y41.0544
G1 X13.8047 Y41.0627
G1 X13.8053 Y41.0711
G1 Y41.0795
G1 X13.8047 Y41.0878
G1 X13.8035 Y41.0961
G1 X13.8017 Y41.1043
G1 X13.7992 Y41.1124
G1 X13.7962 Y41.1202
G1 X13.7927 Y41.1278
G1 X13.7886 Y41.1351
G1 X13.7839 Y41.1421
G1 X13.7788 Y41.1488
G1 X13.7732 Y41.155
G1 X13.7672 Y41.1608
G1 X13.7607 Y41.1662
G1 X13.7539 Y41.1711
G1 X13.7467 Y41.1754
G1 X13.7393 Y41.1793
G1 X13.7316 Y41.1826
G1 X13.7236 Y41.1853
G1 X13.7155 Y41.1874
G1 X13.7072 Y41.1889
G1 X13.6989 Y41.1898
G1 X13.6905 Y41.1901
G1 X13.5443
G1 X1.4557
G1 X1.4473 Y41.1905
G1 X1.439 Y41.1914
G1 X1.4307 Y41.1929
G1 X1.4226 Y41.195
G1 X1.4147 Y41.1977
G1 X1.4069 Y41.201
G1 X1.3995 Y41.2048
G1 X1.3923 Y41.2092
G1 X1.3855 Y41.2141
G1 X1.379 Y41.2195
G1 X1.373 Y41.2253
G1 X1.3674 Y41.2315
G1 X1.3623 Y41.2382
G1 X1.3576 Y41.2452
G1 X1.3535 Y41.2525
G1 X1.35 Y41.2601
G1 X1.347 Y41.2679
G1 X1.3446 Y41.276
G1 X1.3427 Y41.2842
G1 X1.3415 Y41.2925
G1 X1.3409 Y41.3008
G1 Y41.3092
G1 X1.3415 Y41.3176
G1 X1.3427 Y41.3259
G1 X1.3446 Y41.3341
G1 X1.347 Y41.3421
G1 X1.35 Y41.35
G1 X1.3535 Y41.3575
G1 X1.3576 Y41.3649
G1 X1.3623 Y41.3719
G1 X1.3674 Y41.3785
G1 X1.373 Y41.3848
G1 X1.379 Y41.3906
G1 X1.3855 Y41.3959
G1 X1.3923 Y41.4008
G1 X1.3995 Y41.4052
G1 X1.4069 Y41.409
G1 X1.4147 Y41.4123
G1 X1.4226 Y41.415
G1 X1.4307 Y41.4171
G1 X1.439 Y41.4187
G1 X1.4473 Y41.4196
G1 X1.4557 Y41.4199
G1 X1.6141
G1 X13.3859
G1 X13.3943 Y41.4202
G1 X13.4026 Y41.4211
G1 X13.4109 Y41.4226
G1 X13.419 Y41.4248
G1 X13.4269 Y41.4275
G1 X13.4346 Y41.4308
G1 X13.4421 Y41.4346
G1 X13.4493 Y41.439
G1 X13.4561 Y41.4438
G1 X13.4625 Y41.4492
G1 X13.4686 Y41.455
G1 X13.4742 Y41.4613
G1 X13.4793 Y41.4679
G1 X13.4839 Y41.4749
G1 X13.488 Y41.4822
G1 X13.4916 Y41.4898
G1 X13.4946 Y41.4977
G1 X13.497 Y41.5057
G1 X13.4988 Y41.5139
G1 X13.5001 Y41.5222
G1 X13.5007 Y41.5306
G1 Y41.539
G1 X13.5001 Y41.5473
G1 X13.4988 Y41.5556
G1 X13.497 Y41.5638
G1 X13.4946 Y41.5719
G1 X13.4916 Y41.5797
G1 X13.488 Y41.5873
G1 X13.4839 Y41.5946
G1 X13.4793 Y41.6016
G1 X13.4742 Y41.6083
G1 X13.4686 Y41.6145
G1 X13.4625 Y41.6203
G1 X13.4561 Y41.6257
G1 X13.4493 Y41.6306
G1 X13.4421 Y41.6349
G1 X13.4346 Y41.6388
G1 X13.4269 Y41.6421
G1 X13.419 Y41.6448
G1 X13.4109 Y41.6469
G1 X13.4026 Y41.6484
G1 X13.3943 Y41.6493
G1 X13.3859 Y41.6496
G1 X13.2135
G1 X1.7865
G1 X1.7781 Y41.6499
G1 X1.7698 Y41.6509
G1 X1.7615 Y41.6524
G1 X1.7534 Y41.6545
G1 X1.7454 Y41.6572
G1 X1.7377 Y41.6605
G1 X1.7303 Y41.6643
G1 X1.7231 Y41.6687
G1 X1.7163 Y41.6736
G1 X1.7098 Y41.679
G1 X1.7038 Y41.6848
G1 X1.6982 Y41.691
G1 X1.6931 Y41.6977
G1 X1.6884 Y41.7047
G1 X1.6843 Y41.712
G1 X1.6808 Y41.7196
G1 X1.6778 Y41.7274
G1 X1.6753 Y41.7355
G1 X1.6735 Y41.7437
G1 X1.6723 Y41.752
G1 X1.6717 Y41.7603
G1 Y41.7687
G1 X1.6723 Y41.7771
G1 X1.6735 Y41.7854
G1 X1.6753 Y41.7936
G1 X1.6778 Y41.8016
G1 X1.6808 Y41.8094
G1 X1.6843 Y41.817
G1 X1.6884 Y41.8244
G1 X1.6931 Y41.8314
G1 X1.6982 Y41.838
G1 X1.7038 Y41.8442
G1 X1.7098 Y41.8501
G1 X1.7163 Y41.8554
G1 X1.7231 Y41.8603
G1 X1.7303 Y41.8647
G1 X1.7377 Y41.8685
G1 X1.7454 Y41.8718
G1 X1.7534 Y41.8745
G1 X1.7615 Y41.8766
G1 X1.7698 Y41.8782
G1 X1.7781 Y41.8791
G1 X1.7865 Y41.8794
G1 X1.9737
G1 X13.0263
G1 X13.0347 Y41.8797
G1 X13.043 Y41.8806
G1 X13.0513 Y41.8821
G1 X13.0594 Y41.8843
G1 X13.0674 Y41.887
G1 X13.0751 Y41.8903
G1 X13.0825 Y41.8941
G1 X13.0897 Y41.8985
G1 X13.0965 Y41.9033
G1 X13.103 Y41.9087
G1 X13.109 Y41.9145
G1 X13.1146 Y41.9208
G1 X13.1197 Y41.9274
G1 X13.1244 Y41.9344
G1 X13.1285 Y41.9417
G1 X13.132 Y41.9493
G1 X13.135 Y41.9572
G1 X13.1375 Y41.9652
G1 X13.1393 Y41.9734
G1 X13.1405 Y41.9817
G1 X13.1411 Y41.9901
G1 Y41.9985
G1 X13.1405 Y42.0068
G1 X13.1393 Y42.0151
G1 X13.1375 Y42.0233
G1 X13.135 Y42.0314
G1 X13.132 Y42.0392
G1 X13.1285 Y42.0468
G1 X13.1244 Y42.0541
G1 X13.1197 Y42.0611
G1 X13.1146 Y42.0677
G1 X13.109 Y42.074
G1 X13.103 Y42.0798
G1 X13.0965 Y42.0852
G1 X13.0897 Y42.0901
G1 X13.0825 Y42.0944
G1 X13.0751 Y42.0983
G1 X13.0674 Y42.1016
G1 X13.0594 Y42.1043
G1 X13.0513 Y42.1064
G1 X13.043 Y42.1079
G1 X13.0347 Y42.1088
G1 X13.0263 Y42.1091
G1 X12.8227
G1 X2.1773
G1 X2.1689 Y42.1094
G1 X2.1605 Y42.1104
G1 X2.1523 Y42.1119
G1 X2.1442 Y42.114
G1 X2.1362 Y42.1167
G1 X2.1285 Y42.12
G1 X2.121 Y42.1238
G1 X2.1139 Y42.1282
G1 X2.1071 Y42.1331
G1 X2.1006 Y42.1385
G1 X2.0946 Y42.1443
G1 X2.089 Y42.1505
G1 X2.0838 Y42.1572
G1 X2.0792 Y42.1642
G1 X2.0751 Y42.1715
G1 X2.0715 Y42.1791
G1 X2.0685 Y42.1869
G1 X2.0661 Y42.195
G1 X2.0643 Y42.2031
G1 X2.0631 Y42.2114
G1 X2.0625 Y42.2198
G1 Y42.2282
G1 X2.0631 Y42.2366
G1 X2.0643 Y42.2449
G1 X2.0661 Y42.2531
G1 X2.0685 Y42.2611
G1 X2.0715 Y42.2689
G1 X2.0751 Y42.2765
G1 X2.0792 Y42.2839
G1 X2.0838 Y42.2909
G1 X2.089 Y42.2975
G1 X2.0946 Y42.3037
G1 X2.1006 Y42.3096
G1 X2.1071 Y42.3149
G1 X2.1139 Y42.3198
G1 X2.121 Y42.3242
G1 X2.1285 Y42.328
G1 X2.1362 Y42.3313
G1 X2.1442 Y42.334
G1 X2.1523 Y42.3361
G1 X2.1605 Y42.3377
G1 X2.1689 Y42.3386
G1 X2.1773 Y42.3389
G1 X2.3993
G1 X12.6007
G3 Y42.5686 I0. J0.1149
G1 X12.3576
G1 X2.6424
G1 X2.634 Y42.5689
G1 X2.6256 Y42.5699
G1 X2.6174 Y42.5714
G1 X2.6093 Y42.5735
G1 X2.6013 Y42.5762
G1 X2.5936 Y42.5795
G1 X2.5861 Y42.5833
G1 X2.579 Y42.5877
G1 X2.5721 Y42.5926
G1 X2.5657 Y42.598
G1 X2.5597 Y42.6038
G1 X2.5541 Y42.61
G1 X2.5489 Y42.6167
G1 X2.5443 Y42.6237
G1 X2.5402 Y42.631
G1 X2.5366 Y42.6386
G1 X2.5336 Y42.6464
G1 X2.5312 Y42.6544
G1 X2.5294 Y42.6626
G1 X2.5282 Y42.6709
G1 X2.5276 Y42.6793
G1 Y42.6877
G1 X2.5282 Y42.6961
G1 X2.5294 Y42.7044
G1 X2.5312 Y42.7126
G1 X2.5336 Y42.7206
G1 X2.5366 Y42.7284
G1 X2.5402 Y42.736
G1 X2.5443 Y42.7433
G1 X2.5489 Y42.7503
G1 X2.5541 Y42.757
G1 X2.5597 Y42.7632
G1 X2.5657 Y42.7691
G1 X2.5721 Y42.7744
G1 X2.579 Y42.7793
G1 X2.5861 Y42.7837
G1 X2.5936 Y42.7875
G1 X2.6013 Y42.7908
G1 X2.6093 Y42.7935
G1 X2.6174 Y42.7956
G1 X2.6256 Y42.7972
G1 X2.634 Y42.7981
G1 X2.6424 Y42.7984
G1 X2.9096
G1 X12.0904
G1 X12.0988 Y42.7987
G1 X12.1071 Y42.7996
G1 X12.1154 Y42.8011
G1 X12.1235 Y42.8033
G1 X12.1314 Y42.806
G1 X12.1391 Y42.8092
G1 X12.1466 Y42.8131
G1 X12.1538 Y42.8174
G1 X12.1606 Y42.8223
G1 X12.167 Y42.8277
G1 X12.1731 Y42.8335
G1 X12.1787 Y42.8398
G1 X12.1838 Y42.8464
G1 X12.1884 Y42.8534
G1 X12.1926 Y42.8607
G1 X12.1961 Y42.8683
G1 X12.1991 Y42.8762
G1 X12.2015 Y42.8842
G1 X12.2034 Y42.8924
G1 X12.2046 Y42.9007
G1 X12.2052 Y42.9091
G1 Y42.9174
G1 X12.2046 Y42.9258
G1 X12.2034 Y42.9341
G1 X12.2015 Y42.9423
G1 X12.1991 Y42.9503
G1 X12.1961 Y42.9582
G1 X12.1926 Y42.9658
G1 X12.1884 Y42.9731
G1 X12.1838 Y42.9801
G1 X12.1787 Y42.9867
G1 X12.1731 Y42.993
G1 X12.167 Y42.9988
G1 X12.1606 Y43.0042
G1 X12.1538 Y43.0091
G1 X12.1466 Y43.0134
G1 X12.1391 Y43.0173
G1 X12.1314 Y43.0205
G1 X12.1235 Y43.0233
G1 X12.1154 Y43.0254
G1 X12.1071 Y43.0269
G1 X12.0988 Y43.0278
G1 X12.0904 Y43.0281
G1 X11.7943
G1 X3.2057
G1 X3.1973 Y43.0284
G1 X3.189 Y43.0294
G1 X3.1808 Y43.0309
G1 X3.1726 Y43.033
G1 X3.1647 Y43.0357
G1 X3.157 Y43.039
G1 X3.1495 Y43.0428
G1 X3.1423 Y43.0472
G1 X3.1355 Y43.0521
G1 X3.1291 Y43.0574
G1 X3.123 Y43.0633
G1 X3.1174 Y43.0695
G1 X3.1123 Y43.0762
G1 X3.1077 Y43.0832
G1 X3.1036 Y43.0905
G1 X3.1 Y43.0981
G1 X3.097 Y43.1059
G1 X3.0946 Y43.1139
G1 X3.0928 Y43.1221
G1 X3.0915 Y43.1304
G1 X3.0909 Y43.1388
G1 Y43.1472
G1 X3.0915 Y43.1556
G1 X3.0928 Y43.1639
G1 X3.0946 Y43.1721
G1 X3.097 Y43.1801
G1 X3.1 Y43.1879
G1 X3.1036 Y43.1955
G1 X3.1077 Y43.2028
G1 X3.1123 Y43.2098
G1 X3.1174 Y43.2165
G1 X3.123 Y43.2227
G1 X3.1291 Y43.2286
G1 X3.1355 Y43.2339
G1 X3.1423 Y43.2388
G1 X3.1495 Y43.2432
G1 X3.157 Y43.247
G1 X3.1647 Y43.2503
G1 X3.1726 Y43.253
G1 X3.1808 Y43.2551
G1 X3.189 Y43.2566
G1 X3.1973 Y43.2576
G1 X3.2057 Y43.2579
G1 X3.537
G1 X11.463
G1 X11.4714 Y43.2582
G1 X11.4798 Y43.2591
G1 X11.488 Y43.2606
G1 X11.4961 Y43.2627
G1 X11.5041 Y43.2655
G1 X11.5118 Y43.2687
G1 X11.5193 Y43.2726
G1 X11.5264 Y43.2769
G1 X11.5332 Y43.2818
G1 X11.5397 Y43.2872
G1 X11.5457 Y43.293
G1 X11.5513 Y43.2993
G1 X11.5565 Y43.3059
G1 X11.5611 Y43.3129
G1 X11.5652 Y43.3202
G1 X11.5688 Y43.3278
G1 X11.5718 Y43.3357
G1 X11.5742 Y43.3437
G1 X11.576 Y43.3519
G1 X11.5772 Y43.3602
G1 X11.5778 Y43.3685
G1 Y43.3769
G1 X11.5772 Y43.3853
G1 X11.576 Y43.3936
G1 X11.5742 Y43.4018
G1 X11.5718 Y43.4098
G1 X11.5688 Y43.4177
G1 X11.5652 Y43.4253
G1 X11.5611 Y43.4326
G1 X11.5565 Y43.4396
G1 X11.5513 Y43.4462
G1 X11.5457 Y43.4525
G1 X11.5397 Y43.4583
G1 X11.5332 Y43.4637
G1 X11.5264 Y43.4686
G1 X11.5193 Y43.4729
G1 X11.5118 Y43.4768
G1 X11.5041 Y43.48
G1 X11.4961 Y43.4827
G1 X11.488 Y43.4849
G1 X11.4798 Y43.4864
G1 X11.4714 Y43.4873
G1 X11.463 Y43.4876
G1 X11.0865
G1 X3.9135
G1 X3.9051 Y43.4879
G1 X3.8968 Y43.4888
G1 X3.8886 Y43.4904
G1 X3.8804 Y43.4925
G1 X3.8725 Y43.4952
G1 X3.8648 Y43.4985
G1 X3.8573 Y43.5023
G1 X3.8502 Y43.5067
G1 X3.8433 Y43.5116
G1 X3.8369 Y43.5169
G1 X3.8308 Y43.5228
G1 X3.8252 Y43.529
G1 X3.8201 Y43.5357
G1 X3.8155 Y43.5427
G1 X3.8114 Y43.55
G1 X3.8078 Y43.5576
G1 X3.8048 Y43.5654
G1 X3.8024 Y43.5734
G1 X3.8006 Y43.5816
G1 X3.7993 Y43.5899
G1 X3.7987 Y43.5983
G1 Y43.6067
G1 X3.7993 Y43.6151
G1 X3.8006 Y43.6234
G1 X3.8024 Y43.6315
G1 X3.8048 Y43.6396
G1 X3.8078 Y43.6474
G1 X3.8114 Y43.655
G1 X3.8155 Y43.6623
G1 X3.8201 Y43.6693
G1 X3.8252 Y43.676
G1 X3.8308 Y43.6822
G1 X3.8369 Y43.688
G1 X3.8433 Y43.6934
G1 X3.8501 Y43.6983
G1 X3.8573 Y43.7027
G1 X3.8648 Y43.7065
G1 X3.8725 Y43.7098
G1 X3.8804 Y43.7125
G1 X3.8886 Y43.7146
G1 X3.8968 Y43.7161
G1 X3.9051 Y43.7171
G1 X3.9135 Y43.7174
G1 X4.3515
G1 X10.6485
G1 X10.6569 Y43.7177
G1 X10.6652 Y43.7186
G1 X10.6735 Y43.7201
G1 X10.6816 Y43.7222
G1 X10.6896 Y43.7249
G1 X10.6973 Y43.7282
G1 X10.7047 Y43.7321
G1 X10.7119 Y43.7364
G1 X10.7187 Y43.7413
G1 X10.7252 Y43.7467
G1 X10.7312 Y43.7525
G1 X10.7368 Y43.7588
G1 X10.7419 Y43.7654
G1 X10.7466 Y43.7724
G1 X10.7507 Y43.7797
G1 X10.7542 Y43.7873
G1 X10.7572 Y43.7952
G1 X10.7597 Y43.8032
G1 X10.7615 Y43.8114
G1 X10.7627 Y43.8197
G1 X10.7633 Y43.828
G1 Y43.8364
G1 X10.7627 Y43.8448
G1 X10.7615 Y43.8531
G1 X10.7597 Y43.8613
G1 X10.7572 Y43.8693
G1 X10.7542 Y43.8772
G1 X10.7507 Y43.8848
G1 X10.7466 Y43.8921
G1 X10.7419 Y43.8991
G1 X10.7368 Y43.9057
G1 X10.7312 Y43.912
G1 X10.7252 Y43.9178
G1 X10.7187 Y43.9232
G1 X10.7119 Y43.928
G1 X10.7047 Y43.9324
G1 X10.6973 Y43.9363
G1 X10.6896 Y43.9395
G1 X10.6816 Y43.9422
G1 X10.6735 Y43.9444
G1 X10.6652 Y43.9459
G1 X10.6569 Y43.9468
G1 X10.6485 Y43.9471
G1 X10.1195
G1 X4.8805
G1 X4.8749 Z0.5003
G1 X4.8694 Z0.5013
G1 X4.864 Z0.5028
G1 X4.8588 Z0.505
G1 X4.8539 Z0.5077
G1 X4.8494 Z0.5109
G1 X4.8452 Z0.5146
G1 X4.8414 Z0.5188
G1 X4.8382 Z0.5234
G1 X4.8355 Z0.5283
G1 X4.8333 Z0.5335
G1 X4.8318 Z0.5389
G1 X4.8309 Z0.5444
G1 X4.8305 Z0.55
G0 Z6.2
(******** beginning closing sequence ********)
M5 (SPINDLE OFF)
G20 (set units to inch for parking sequence)
G53Z (RETRACT HIGH-Z)
T0(TOOL DROP)
M62.1 (vacuum table off)
G92 (reset coordinate offsets)
G53Z (RETRACT HIGH-Z)
G28Z (RETRACT, RESET Z)
G53Y99X46.5 (park position X+Y)
L21 (SOFT LIMITS OFF)
G53 Z-16.180 (PARK Z)
L20 (SOFT LIMITS ON)
(********************************************************)
(If you are done, please)
( 1. sweep and vacuum any leftover dust and debris)
( 2. remove and place scraps in trashcans)
( 3. turn off the dust collector)
(********************************************************)
